assets/nuxt/original.svg

<svg viewBox="0 0 128 128" xmlns="http://www.w3.org/2000/svg"><path d="m71.679 106.667h47.359c1.514 0 2.962-.533 4.268-1.283 1.307-.75 2.66-1.688 3.415-2.986s1.279-2.769 1.279-4.264-.524-2.971-1.279-4.268l-32-55.038c-.755-1.297-1.68-2.24-2.99-2.991-1.312-.751-3.18-1.279-4.695-1.279-1.514 0-2.957.533-4.263 1.279-1.307.746-2.232 1.693-2.987 2.991l-8.108 14.08-16.213-27.311c-.755-1.297-1.68-2.66-2.986-3.41-1.307-.75-2.755-.854-4.269-.854s-2.957.104-4.264.854c-1.306.75-2.66 2.113-3.415 3.41l-39.677 68.267c-.755 1.297-.854 2.77-.854 4.27 0 1.499.099 2.966.854 4.263.754 1.297 2.103 2.24 3.415 2.986 1.311.747 2.754 1.284 4.264 1.284h29.867c11.835 0 20.449-5.31 26.453-15.364l14.505-25.17 7.678-13.226 23.468 40.104h-31.145zm-33.709-13.657h-20.904l31.147-53.76 15.787 26.884-10.457 18.227c-3.986 6.523-8.533 8.65-15.572 8.65zm0 0" fill="#00dc82"/></svg>

<svg xmlns="http://www.w3.org/2000/svg" viewBox="0 0 128 128"><path fill="#00dc82" d="M71.679 106.667h47.359c1.514 0 2.962-.533 4.268-1.283 1.307-.75 2.66-1.688 3.415-2.986S128 99.629 128 98.134s-.524-2.971-1.279-4.268l-32-55.038c-.755-1.297-1.68-2.24-2.99-2.991-1.312-.751-3.18-1.279-4.695-1.279-1.514 0-2.957.533-4.263 1.279s-2.232 1.693-2.987 2.991l-8.108 14.08-16.213-27.311c-.755-1.297-1.68-2.66-2.986-3.41s-2.755-.854-4.269-.854-2.957.104-4.264.854c-1.306.75-2.66 2.113-3.415 3.41L.854 93.864C.099 95.161 0 96.634 0 98.134s.099 2.966.854 4.263c.754 1.297 2.103 2.24 3.415 2.986 1.311.747 2.754 1.284 4.264 1.284H38.4c11.835 0 20.449-5.31 26.453-15.364l14.505-25.17 7.678-13.226 23.468 40.104H79.359zM37.97 93.01H17.066l31.147-53.76L64 66.134 53.543 84.361c-3.986 6.523-8.533 8.65-15.572 8.65zm0 0"/></svg>
